!!!COM: Palestrina, Giovanni Perluigi da
!!!OPR: Missa Ascendo ad Patrem
!!!OMD: Sanctus
!!!OTL: First Section
**kern	**kern	**kern	**kern	**kern
*Ibass	*Itenor	*Itenor	*Icalto	*Icant
!Bassus	!Tenor 2	!Tenor 1	!Altus	!Cantus
*clefF4	*clefGv2	*clefGv2	*clefG2	*clefG2
*k[]	*k[]	*k[]	*k[]	*k[]
*C:ion	*C:ion	*C:ion	*C:ion	*C:ion
*M4/2	*M4/2	*M4/2	*M4/2	*M4/2
=1	=1	=1	=1	=1
1r	1G	0r	0r	0r
1C	1G	.	.	.
=2	=2	=2	=2	=2
1C	1g	0r	1c	0r
1c	2.e	.	1c	.
.	4d	.	.	.
=3	=3	=3	=3	=3
2.A	2e	0r	1cc	0r
.	1f	.	.	.
4G	.	.	.	.
4A	.	.	2a	.
4B	.	.	.	.
[2c	2e	.	2g	.
=4	=4	=4	=4	=4
2c]	1d	0r	2a	0r
2B	.	.	2b	.
1A	2e	.	2.cc	.
.	[2c	.	.	.
.	.	.	4b	.
=5	=5	=5	=5	=5
2.F	4c]	1c	4a	0r
.	4B	.	4g	.
.	4A	.	2.f	.
4G	4G	.	.	.
4A	4F	1c	.	.
4B	4G	.	4e	.
[2c	2A	.	4e	.
.	.	.	8d	.
.	.	.	8c	.
=6	=6	=6	=6	=6
2c]	1G	1g	1d	1r
2B	.	.	.	.
1c	1r	2.e	1r	1g
.	.	4d	.	.
=7	=7	=7	=7	=7
[0C	2r	4e	1c	1g
.	.	4f	.	.
.	4c	2.g	.	.
.	4d	.	.	.
.	4e	.	1c	1gg
.	4f	4f	.	.
.	[2g	4e	.	.
.	.	4d	.	.
=8	=8	=8	=8	=8
1C]	4g]	1.c	1cc	1.ee
.	4f	.	.	.
.	4e	.	.	.
.	4d	.	.	.
1r	2c	.	2a	.
.	[2g	2B	2b	2dd
=9	=9	=9	=9	=9
0r	2g]	1A	1.cc	2ee
.	2f	.	.	2ff
.	2e	1G	.	2.gg
.	2d	.	4b	.
.	.	.	4a	4ff
=10	=10	=10	=10	=10
0r	2e	0r	2g	4ee
.	.	.	.	4dd
.	2.f	.	2.a	2.cc
.	4g	.	4g	4b
.	2e	.	2g	4b
.	.	.	.	8a
.	.	.	.	8g
=11	=11	=11	=11	=11
1r	1d	2r	2g	1a
.	.	2.d	2f#	.
2.G	2.B	.	1g	1g
.	.	4d	.	.
.	.	2d	.	.
4G	4B	.	.	.
=12	=12	=12	=12	=12
2G	2B	1e	0r	0r
1A	1c	.	.	.
.	.	2f	.	.
2G	2B	[2e	.	.
=13	=13	=13	=13	=13
2F	2A	2e]	1r	0r
2F	2A	2d	.	.
2E	2B	1e	2.g	.
[2c	[2e	.	.	.
.	.	.	4g	.
=14	=14	=14	=14	=14
4c]	4e]	1c	2g	0r
4B	4d	.	.	.
4A	4c	.	1a	.
4G	4B	.	.	.
2F	4A	1c	.	.
.	4B	.	.	.
2E	[2c	.	2g	.
=15	=15	=15	=15	=15
1D	2c]	1d	1f	2r
.	4B	.	.	2.dd
.	4A	.	.	.
1D	2B	1r	1f	.
.	.	.	.	4dd
.	2B	.	.	2dd
=16	=16	=16	=16	=16
1C	1c	2.g	2e	1ee
.	.	.	2cc	.
.	.	4g	.	.
1r	1r	2g	2b	2dd
.	.	[2a	[2cc	[2ff
=17	=17	=17	=17	=17
0r	0r	2a]	2cc]	4ff]
.	.	.	.	4ee
.	.	2g	2b	1ee
.	.	2f	1a	.
.	.	2f	.	2dd
=18	=18	=18	=18	=18
1r	2r	1e	1b	0ee
.	2.g	.	.	.
2.c	.	2.e	2.cc	.
.	4g	.	.	.
.	2g	.	.	.
4c	.	4e	4cc	.
=19	=19	=19	=19	=19
2c	1a	2e	2cc	0r
1d	.	2f	2a	.
.	2f	2d	2b-	.
2c	[2e	2e	[2a	.
=20	=20	=20	=20	=20
2B-	4e]	2f	2a]	0r
.	4d	.	.	.
2B-	1d	4e	2g	.
.	.	4d	.	.
1A	.	1e	2a	.
.	2c#	.	[2a	.
=21	=21	=21	=21	=21
1D	2d	1f#	4a]	0r
.	.	.	4a	.
.	2.d	.	2a	.
2.G	.	2.g	1b	.
.	4d	.	.	.
.	2d	.	.	.
4G	.	4g	.	.
=22	=22	=22	=22	=22
2C	2e	2g	1cc	2r
1F	2f	1a	.	2.cc
.	2c	.	2f	.
.	.	.	.	4cc
2E	2e	2g	2g	2cc
=23	=23	=23	=23	=23
4D	1A	1f	0a	1dd
4E	.	.	.	.
4F	.	.	.	.
4G	.	.	.	.
2.A	2.c	2e	.	2cc
.	.	[2c	.	[2ee
4B	4d	.	.	.
=24	=24	=24	=24	=24
1c	2.e	4c]	1.g	4ee]
.	.	4d	.	4dd
.	.	4e	.	1cc
.	4f	4c	.	.
1G	2g	1d	.	.
.	2g	.	2d	2b
=25	=25	=25	=25	=25
1C	1e	1c	1g	0cc
1c	2r	2r	2r	.
.	2e	2c	2g	.
=26	=26	=26	=26	=26
2B	2d	2d	2g	0r
2c	2e	2c	2g	.
1A	2.c	1e	[1cc	.
.	4d	.	.	.
=27	=27	=27	=27	=27
1G	2e	2.g	2cc]	0r
.	2d	.	2b	.
.	.	4f	.	.
1G	1g	2e	1b	.
.	.	[2d	.	.
=28	=28	=28	=28	=28
2.A	2f	4d]	1.a	0r
.	.	4c	.	.
.	2.e	2c	.	.
4G	.	.	.	.
2F	.	2A	.	.
.	4d	.	.	.
2G	[2d	[2B	4g	.
.	.	.	4f	.
=29	=29	=29	=29	=29
1E	2d]	2B]	1g	1r
.	2c#	4A	.	.
.	.	4G	.	.
1D	1d	2A	2f	2r
.	.	2a	2d	2ff
=30	=30	=30	=30	=30
2r	0r	2g	2e	2ee
2D	.	2a	2d	2ff
4D	.	1f	1a	[1dd
4E	.	.	.	.
4F	.	.	.	.
4G	.	.	.	.
=31	=31	=31	=31	=31
1A	2r	1e	1a	2dd]
.	2A	.	.	2cc
1D	4A	1d	2.a	1ff
.	4A	.	.	.
.	[2a	.	.	.
.	.	.	4b	.
=32	=32	=32	=32	=32
0r	4a]	2.e	2cc	1.ee
.	4g	.	.	.
.	2g	.	2.b	.
.	.	4d	.	.
.	2e	2c	.	.
.	.	.	4a	.
.	2f	2d	[2a	4dd
.	.	.	.	4cc
=33	=33	=33	=33	=33
1r	1d	1B-	2a]	1dd
.	.	.	2g	.
2r	2e	1A	1a	4cc
.	.	.	.	4dd
[2A	[2c	.	.	4ee
.	.	.	.	4ff
=34	=34	=34	=34	=34
4A]	4c]	2.e	1r	1ee
4A	4c	.	.	.
2G	2B	.	.	.
.	.	4e	.	.
[1F	2.A	2d	2r	1r
.	.	4c	[2a	.
.	4B	4B	.	.
=35	=35	=35	=35	=35
2F]	1c	2A	4a]	0r
.	.	.	4a	.
2E	.	1c	2g	.
1D	1d	.	1f	.
.	.	2B	.	.
=36	=36	=36	=36	=36
1C	2.g	1c	2.e	2r
.	.	.	.	2.ee
.	4f	.	4d	.
2r	2e	1r	2c	.
.	.	.	.	4ee
[2F	[2f	.	[2a	2dd
=37	=37	=37	=37	=37
4F]	4f]	2.c	4a]	1.cc
4F	4f	.	4a	.
2E	2g	.	2g	.
.	.	4c	.	.
[1F	1a	2c	[1f	.
.	.	[2d	.	2b
=38	=38	=38	=38	=38
1F]	1A	4d]	2f]	1a
.	.	4c	.	.
.	.	1c	2e	.
1G	1r	.	1d	1g
.	.	2B	.	.
*-	*-	*-	*-	*-
!!!CDT: 1525/^1526/-1594/2/2
!!!OCY: Italia
!!!AGN: Mass (Parody)
!!!AST: renaissance, vocal
!!!ASW: Motet 1572 (Palestrina)
!!!PWK: Masses, Book 12
!!!RNB: Cadence finals: G,D
!!!YOR: Le Opere Complete, v. 29, p. 54
!!!YOO: Rome, Italy: Fratelli Scalera
!!!END: 1992//
!!!EED: John Miller
!!!YEC: Copyright 2000, John Miller
!!!YEN: United States of America
!!!YEM: Rights to all derivative electronic formats reserved.
!!!YEM: Refer to licensing agreement for further details.
!!!YEM: This file must be accompanied by the licensing agreement.
!!!YEM: A copy of the licensing agreement may be found at http://www.music-cog.ohio-state.edu/HumdrumDatabases/Palestrina/license.txt
!!!EMD: converted to Humdrum by Bret Aarden
